icon/gr/tooltip.svg

<svg xmlns="http://www.w3.org/2000/svg" width="24" height="24"><path fill="none" stroke="#000" stroke-width="2" d="M16.5 18 12 22.5 7.5 18H1V1h22v17h-6.5ZM6 10h1V9H6v1Zm5.5 0h1V9h-1v1Zm5.5 0h1V9h-1v1Z"/></svg>

<svg xmlns="http://www.w3.org/2000/svg" viewBox="0 0 24 24" height="1em" width="1em">
  <path fill="none" stroke="#000" stroke-width="2" d="M16.5,18 L12,22.5 L7.5,18 L1,18 L1,1 L23,1 L23,18 L16.5,18 Z M6,10 L7,10 L7,9 L6,9 L6,10 Z M11.5,10 L12.5,10 L12.5,9 L11.5,9 L11.5,10 Z M17,10 L18,10 L18,9 L17,9 L17,10 Z"/>
</svg>
